X: 71
T: No_33_You_Are_Struggling.krn
N: Derived from No_33_You_Are_Struggling.krn
%%abc-version 2.0
%%abcx-abcm2ps-target-version 5.9.1 (29 Sep 2008)
%%abc-creator hum2abc beta
%%abcx-conversion-date 2019/03/15 08:35:44
%%humdrum-veritas 1279964725
%%humdrum-veritas-data 625575877
%%linebreak <none>
%%barnumbers 0
L: 1/8
M: 2/4
K: E clef=bass
[K:clef=bass][M:2/4]B,A,/G,/F,2 | 
E,C,/B,,/ B,, z | 
F,F,/F,/E,2 | 
F,E,/E,/ B,, z | 
E,C,/B,,/ B,,C, ||  
[M:5/8]C,C,C,/ z/ F,F, ||  
[M:2/4]E,2E,/C,/B,,/C,/ | 
B,,2B,,B,, | 
B,,4 | 
B,,2z2 |]  



